!!!COM: Bach, Johann Sebastian
!!!OTA: Das wohltemperirte Clavier
!!!OPR: Das wohltemperierte Klavier
!!!OTL: Fuga 19, Vol. 2
!!!XEN: The Well-Tempered Clavier, Volume 2, Fugue 19.
!!!ONB: A major, 3-part
!!!SCT: BWV 888b
!!!YEC: Copyright 1994, David Huron
!!!YEM: Rights to all derivative electronic formats reserved.
**kern	**kern	**kern
*staff2	*staff1	*staff1
*clefF4	*clefG2	*clefG2
*k[f#c#g#]	*k[f#c#g#]	*k[f#c#g#]
*M4/4	*M4/4	*M4/4
*A:	*A:	*A:
*MM84	*MM84	*MM84
=1	=1	=1
8r	1r	1r
16A	.	.
16B	.	.
16c#	.	.
16B	.	.
16A	.	.
16c#	.	.
16B	.	.
16d	.	.
[8c#	.	.
16c#]	.	.
16e	.	.
[8d	.	.
=2	=2	=2
16d]	2r	1r
16f#	.	.
16e	.	.
16d	.	.
16e	.	.
16B	.	.
16c#	.	.
16d	.	.
8c#	8r	.
8A	16e	.
.	16f#	.
8B	16g#	.
.	16f#	.
8c#	16e	.
.	16g#	.
=3	=3	=3
8d	16f#	1r
.	16a	.
16B	[8g#	.
16e	.	.
8c#	16g#]	.
.	16b	.
16f#	[8a	.
16c#	.	.
16d#	16a]	.
16B	16cc#	.
4e	16b	.
.	16a	.
.	16b	.
.	16f#	.
8d#	16g#	.
.	16a	.
=4	=4	=4
8.e	16g#	1r
.	16b	.
.	16a	.
16B	16g#	.
8c#	16a	.
.	16e	.
8A	16f#	.
.	16gn	.
8.d	16f#	.
.	16a	.
.	16g#	.
16A	16f#	.
8B	16g#	.
.	16d#	.
8G#	16e	.
.	16f#	.
=5	=5	=5
16c#	4.e	8r
16d	.	.
16c#	.	16a
16B	.	16b
8.A	.	16cc#
.	.	16b
.	8f#	16a
16A	.	16cc#
8.e	8.g#	16b
.	.	16dd
.	.	[8cc#
16E	16g#	.
8.F#	8.a	16cc#]
.	.	16ee
.	.	[8dd
16f#	16a	.
=6	=6	=6
4g#	4b	16dd]
.	.	16ff#
.	.	16ee
.	.	16dd
8r	8r	16ee
.	.	16b
8e	8g#	16cc#
.	.	16dd
8A	8a	16cc#
.	.	16dd
8B	8g#	16ee
.	.	16ff#
8c#	8a	16ee
.	.	16aa
8d#	8b	16gg#
.	.	16ff#
=7	=7	=7
8e	[4b	16gg#
.	.	16ff#
16E	.	16ee
16F#	.	16dd#
16G#	16b]	[4ee
16F#	16a	.
16E	16g#	.
16G#	16b	.
16F#	16a	8.ee]
16A	16f#	.
[8G#	[8b	.
.	.	16dd#
16G#]	16b]	8.ee
16B	16g#	.
[8A	[8cc#	.
.	.	16dd#
=8	=8	=8
16A]	8cc#]	8.ee
16c#	.	.
16B	[8f#	.
16A	.	16cc#
16B	8.f#]	[4ddn
16F#	.	.
16G#	.	.
16A	16f#	.
16G#	[4e	8.dd]
16B	.	.
16A	.	.
16G#	.	16b#
16A	8.e]	[4cc#
16E	.	.
16F#	.	.
16G#	16e	.
=9	=9	=9
16F#	[4d#	8.cc#]
16A	.	.
16G#	.	.
16F#	.	16a#
16G#	8.d#]	[4bn
16D#	.	.
16E#	.	.
16F#	16dn	.
16E#	4.c#	16b]
16C#	.	16e#
16D#	.	16f#
16E#	.	16g#
8.F#	.	16an
.	.	16g#
.	8d#	16f#
16F#	.	16a
=10	=10	=10
8.c#	8.e#	16g#
.	.	16b
.	.	[8a
16C#	16e#	.
8.D	8.f#	16a]
.	.	16cc#
.	.	[8b
16D#	16f#	.
8.En	4g#	16b]
.	.	16dd
.	.	16cc#
16G#	.	16b
8E#	4r	16cc#
.	.	16g#
8C#	.	16a
.	.	16b
=11	=11	=11
8.F#	16r	[2a
.	16g#	.
.	16f#	.
16G#	16e#	.
8A	16f#	.
.	16c#	.
8F#	16d#	.
.	16en	.
8.BB	[2d#	16a]
.	.	16cc#
.	.	16b
16C#	.	16a
8D#	.	16b
.	.	16f#
8BB	.	16g#
.	.	16a
=12	=12	=12
8.E	16d#]	[2g#
.	16G#	.
.	16c#	.
16D#	16d#	.
8.C#	16e	.
.	16d#	.
.	16c#	.
16c#	16e	.
16B#	16d#	8.g#]
16G#	16f#	.
16c#	[8e	.
16Bn	.	16g#
16A	16e]	8.cc#
16G#	16g#	.
16A	[8f#	.
16F#	.	16dd#
=13	=13	=13
8.G#	16f#]	8.b#
.	16a	.
.	16g#	.
16D#	16f#	[16dd#
8BB#	16g#	4dd#_
.	16d#	.
8GG#	16e	.
.	16f#	.
[2C#	8.e	16dd#]
.	.	16b#
.	.	16cc#
.	16G#	16dd#
.	8A#	16cc#
.	.	16ff#
.	8B#	16ee
.	.	16dd#
=14	=14	=14
8C#]	16c#	[2ee
.	16d#	.
8r	16c#	.
.	16B#	.
4r	16c#	.
.	16G#	.
.	16A#	.
.	16Bn	.
8r	8A#	16ee]
.	.	16ggn
16r	8r	16ff#
16c#	.	16ee
8A#	4r	16ff#
.	.	16cc#
8F#	.	16ddn
.	.	16ee
=15	=15	=15
8.B	16r	[2dd
.	16cc#	.
.	16b	.
16F#	16a#	.
8D	16b	.
.	16f#	.
8BB	16g#	.
.	16an	.
8.E	2g#	16dd]
.	.	16ff#
.	.	16ee
16BB	.	16dd
8GG#	.	16ee
.	.	16b
8EE	.	16cc#
.	.	16dd
=16	=16	=16
16AAA	8a	16cc#
16EE	.	16dd
16AA	8r	16cc#
16BB	.	16b
16C#	4r	16a
16BB	.	16g#
16AA	.	16f#
16C#	.	16e
16BB	2r	16d
16D	.	16f#
[8C#	.	16g#
.	.	16b
16C#]	.	16e
16E	.	16g#
[8D	.	16a#
.	.	16cc#
=17	=17	=17
16D]	8r	[4b
16F#	.	.
16E	16r	.
16D#	16f#	.
16E	[4gn	8.b]
16BB	.	.
16C#	.	.
16Dn	.	16b
16C#	8.g]	[4a
16E	.	.
16D	.	.
16C#	16e#	.
16D	[4f#	8.a]
16AA	.	.
16BB	.	.
16C#	.	16a
=18	=18	=18
16BB	8.f#]	[4g#
16D	.	.
16C#	.	.
16BB	16d#	.
16C#	[4en	8.g#]
16GG#	.	.
16AA#	.	.
16BB	.	16gn
16AA#	8e]	4f#
16FF#	.	.
16GG#	16dn	.
16AA#	16c#	.
16GG#	16B	4r
16C#	16A#	.
16BB	16G#	.
16AA#	16F#	.
=19	=19	=19
16BB	16d	4f#
16C#	16c#	.
16D	16B	.
16E	16A#	.
16D	16B	4r
16Gn	16e	.
16F#	16d	.
16E	16c#	.
16F#	16d	2r
16G#	16dd	.
16A	16cc#	.
16B	16b	.
16A	16cc#	.
16d	16g#	.
16c#	16an	.
16B	16b	.
=20	=20	=20
16c#	4.a	16r
16A	.	16cc#
16B	.	16dd
16c#	.	16ee
8.d	.	16ff#
.	.	16ee
.	8b	16dd
16D	.	16ff#
8.A	8.cc#	16ee
.	.	16ggn
.	.	[8ff#
16A#	16cc#	.
8.B	8.dd	16ff#]
.	.	16aa
.	.	[8gg
16BB	16dd#	.
=21	=21	=21
8.Cn	[2ee	16ggn]
.	.	16bb
.	.	16aa
16cn	.	16gg#
8.c#	.	16aa
.	.	16ee
.	.	16ff#
16A	.	16ggn
16d	16ee]	[2ff#
16c#	16ee	.
16B	16dd	.
16A	16cc#	.
16B	16dd	.
16F#	16a	.
16G#	16b	.
16A	16cc#	.
=22	=22	=22
16G#	[2b	16ff#]
16A	.	16ff#
16G#	.	16ee
16F#	.	16dd#
16G#	.	16ee
16B	.	16b
16A	.	16cc#
16G#	.	16ddn
16A	16b]	[2cc#
16G#	16b	.
16F#	16a	.
16E	16g#	.
16F#	16a	.
16C#	16e	.
16D#	16f#	.
16E	16gn	.
=23	=23	=23
16D#	[2f#	16cc#]
16E	.	16ccn
16D#	.	16b
16C#	.	16a#
16D#	.	16b
16F#	.	16f#
16E	.	16g#
16D#	.	16an
8.E	16f#]	8.g#
.	16B	.
.	16e	.
16EE	16f#	16a
8.E	16g#	8.b
.	16f#	.
.	16e	.
16AA#	16gn	16cc#
=24	=24	=24
8.BB	16f#	8.dd
.	16a	.
.	[8g#	.
16B	.	16dd#
8.c#	16g#]	8.ee
.	16b	.
.	[8a	.
16C#	.	16ee#
8.D	16a]	[2ff#
.	16cc#	.
.	16b	.
16d	16a	.
8.d#	16b	.
.	16f#	.
.	16g#	.
16D#	16a	.
=25	=25	=25
8E	16g#	16ff#]
.	16a	16dd#
8r	16g#	16ee
.	16f#	16ff#
4r	16g#	16ee
.	16d#	16aa
.	16e	16gg#
.	16f#	16ff#
16r	8e	16gg#
16F#	.	16ff#
16G#	8r	16ee
16A	.	16dd#
16G#	4r	16ee
16B	.	16b
16A	.	16cc#
16G#	.	16ddn
=26	=26	=26
4A	16r	16cc#
.	16d	16g#
.	16c#	16a
.	16B	16b
4r	16c#	16a
.	16G#	16dd
.	16A	16cc#
.	16B	16b
16r	8A	16cc#
16BB	.	16b
16C#	8r	16a
16D	.	16g#
16C#	4r	16a
16E	.	16e
16D	.	16f#
16C#	.	16gn
=27	=27	=27
16D	4r	16f#
16C#	.	16a
16BB	.	16b
16AA	.	16cc#
16BB	16r	[4dd
16FF#	16a	.
16GG#	16g#	.
16AA	16f#	.
16GG#	[4e	16dd]
16EE	.	16g#
16FF#	.	16a
16GG#	.	16b
16AA	8.e]	16cc#
16BB	.	16b
16C#	.	16a
16AA	16f#	16cc#
=28	=28	=28
8.E	8.g#	16b
.	.	16dd
.	.	[8cc#
16EE	16g#	.
8.FF#	8.a	16cc#]
.	.	16ee
.	.	[8dd
16F#	16a	.
16G#	4b	16dd]
16A	.	16ff#
16G#	.	16ee
16F#	.	16dd#
16E	4r	16ee
16D	.	16b
16C#	.	16cc#
16BB	.	16ddn
=29	=29	=29
8AA	16r	8.cc#
.	16a	.
8D	16g#	.
.	16f#	16b
4E	16e	8.g#M
.	16d	.
.	16c#	.
.	16B	16a
2AA;	2c#;	2a;
==	==	==
*-	*-	*-
!!!CDT: 1685/3/-1750/7/28
!!!OCY: Deutschland
!!!PPP: Leipzig
!!!ODT: 1738//-1742//
!!!PDT: 1739//-1742//
!!!AFR: fuga; fugue
!!!AST: polyphony
!!!AMT: simple quadruple
!!!SCA: Bach-Werke-Verzeichnis
!!!YOR: Bach Gesellschaft
!!!SMS: British Library, various
!!!AIN: cemba; clavi
!!!EEV: 1.0
!!!RDT: 1986 December 11
!!!YER: 1994 August 10
!!!EFL: 43/48
!!!VTS: 3035597347
